X: 26427
T: Merry Sisters, The
R: reel
M: 4/4
K: Edorian
|:BE E2 BdcA|BE E2 dAFA|BE E2 BdcA|FD D2 ADFA:|
Beec d2 cd|Beed BA (3FGA|Beec d2 cd|BdAB dAFD|
Beec d2 cd|Bdef gfed|Beec d2 cd|BdAB dAFD||
Bdcd BdAd|BE E2 BE F2|Bdcd BdAB|FD D2 ADFA|
Bdcd BdAd|BE E2 BE F2|ADFA d3e|(3fed (3edc d2 cd||

